!!!!SEGMENT: T339_Bar-w35p37-38h11m1-h12m4.krn
!!!COM: Bartók, Béla
!!!OTL: III: Ricapitulazione della prima parte (Recapitulation of the First Part): Moderato - Coda: Allegro molto
!!!AGN: Instrumental
!!!AGN-sub: Chamber
!!!CNT: Hungarian
!!!ODT: 1927
!!!OPR: String Quartet No. 3
!!!filename: T339_Bar-w35p37-38h11m1-h12m4.krn
**kern	**dynam	**kern	**dynam	**kern	**dynam	**kern	**dynam
*grp:A	*	*grp:A	*	*grp:B	*	*grp:B	*
*part4	*	*part3	*	*part2	*	*part1	*
*staff4	*	*staff3	*	*staff2	*	*staff1	*
*I"Violoncello	*	*I"Viola	*	*I"Violin II	*	*I"Violin I	*
*I'Vc.	*	*I'Vla.	*	*I'Vln. II	*	*I'Vln. I	*
*clefF4	*	*clefC3	*	*clefG2	*	*clefG2	*
*k[]	*	*k[]	*	*k[]	*	*k[]	*
*M3/8	*	*M3/8	*	*M3/8	*	*M3/8	*
!!LO:REH:t=11
=154	=154	=154	=154	=154	=154	=154	=154
!LO:TX:a:t=a 5 battute	!LO:DY:t=[ %s marcato]	!	!LO:DY:t=[ %s marcato]	!	!	!LO:TX:t=[Meno vivo [quarter]=120]	!
!!!ONB:There should be a brace between Vla. + Vc. to show that the battute sign applies to both parts.
!!!ONB: Downward arrows indicating order of triple-stop playingin Vc. are not available in Verovio
!LO:TX:t=P:problem: Missing downward arrows indicating direction of triple stop	!	!	!	!	!	!	!
!	!	!LO:TX:t=P:problem: Missing Brace between Vla. + Vc. to show that the battute sign applies to both parts.	!	!	!	!	!
4EE^^< 4BB 4E	ff	4B 4e^^	ff	8dd#X 8ccc#X	f	8ddd#X	f
*	*	*	*	*tremolo	*	*tremolo	*
.	.	.	.	8r	.	16cc#X 16ddd#LL	.
.	.	.	.	.	.	16cc#X 16ddd#	.
[8FF#XL [8C#X [8F#X	.	[8c#XL [8f#X	.	8r	.	16cc#X 16ddd#	.
.	.	.	.	.	.	16cc#X 16ddd#JJ	.
=155	=155	=155	=155	=155	=155	=155	=155
8FF#J] 8C#] 8F#]	.	8c#J] 8f#]	.	8r~^^	.	8ddn~^^ 8eee	.
8GG#XL 8D#X	.	8d#XL 8g#X	.	16f#X 16gg#XLL	.	16cc#X 16ddd#XLL	.
.	.	.	.	16f#X 16gg#X	.	16cc#X 16ddd#X	.
8AAJ 8E	.	8eJ 8a	.	16f#X 16gg#X	.	16cc#X 16ddd#X	.
.	.	.	.	16f#X 16gg#XJJ	.	16cc#X 16ddd#XJJ	.
=156	=156	=156	=156	=156	=156	=156	=156
8FF#X 8C#X	.	8c#X 8f#X	.	8gn~^^ 8aa	.	8r	.
(>8DDL [<8AA	.	[4A [4d	.	16f# 16gg#XLL	.	16cc#X 16ddd#XLL	.
.	.	.	.	16f# 16gg#X	.	16cc#X 16ddd#X	.
8AAJ] 8D	.	.	.	16f# 16gg#X	.	16cc#X 16ddd#X	.
.	.	.	.	16f# 16gg#XJJ	.	16cc#X 16ddd#XJJ	.
=157	=157	=157	=157	=157	=157	=157	=157
8D 8A)	.	8A] 8d]	.	8r~^^	.	8ddn~^^ 8eee	.
8BBL 8E	.	8BL 8e	.	16f#X 16gg#XLL	.	16cc#X 16ddd#XLL	.
.	.	.	.	16f#X 16gg#X	.	16cc#X 16ddd#X	.
8FF#XJ 8BB	.	8F#XJ 8B	.	16f#X 16gg#X	.	16cc#X 16ddd#X	.
.	.	.	.	16f#X 16gg#XJJ	.	16cc#X 16ddd#XJJ	.
=158	=158	=158	=158	=158	=158	=158	=158
\(8CC#XL 8GG#X	.	(8G#XL 8c#X	.	8gn~^^ 8aa	.	8r	.
8G#XJ 8c#X)	.	8C#XJ)	.	16f#X 16gg#XLL	.	16c#X 16dd#XLL	.
.	.	.	.	16f#X 16gg#X	.	16c#X 16dd#X	.
8DD#X 8AA#X	.	8A#X 8d#X	.	16f#X 16gg#X	.	16c#X 16dd#X	.
.	.	.	.	16f#X 16gg#XJJ	.	16c#X 16dd#XJJ	.
=159	=159	=159	=159	=159	=159	=159	=159
(8EE^^L \8BB	.	4B~^^ 4e	.	8r~^^	.	8dn~^^< 8ee	.
8EJ 8B)	.	.	.	16f#X 16g#XLL	.	16c#X 16dd#XLL	.
.	.	.	.	16f#X 16g#X	.	16c#X 16dd#X	.
(8FF#XL \8C#X	.	[8c#XL [8f#X	.	16f#X 16g#X	.	16c#X 16dd#X	.
.	.	.	.	16f#X 16g#XJJ	.	16c#X 16dd#XJJ	.
=160	=160	=160	=160	=160	=160	=160	=160
8F#XJ 8c#X)	.	8c#J] 8f#]	.	8Gn~^^< 8a	.	8r	.
8GG#XL 8D#X	.	8d#XL 8g#X	.	16f#X 16g#XLL	.	16c#X 16dd#XLL	.
.	.	.	.	16f#X 16g#X	.	16c#X 16dd#X	.
8AAJ 8E	.	8eJ 8a	.	16f#X 16g#X	.	16c#X 16dd#X	.
.	.	.	.	16f#X 16g#XJJ	.	16c#X 16dd#XJJ	.
!!linebreak:original
=161	=161	=161	=161	=161	=161	=161	=161
8FF#X 8C#X	.	8c#X 8f#X	.	8r~^^	.	8dn~<^^< 8ee	.
(8DDL 8AA	.	(4A 4d	.	16f#X 16g#XLL	.	16c#X 16dd#XLL	.
.	.	.	.	16f#X 16g#X	.	16c#X 16dd#X	.
8DJ 8A	.	.	.	16f#X 16g#X	.	16c#X 16dd#X	.
.	.	.	.	16f#X 16g#XJJ	.	16c#X 16dd#XJJ	.
=162	=162	=162	=162	=162	=162	=162	=162
8d 8a)	.	8D 8A)	.	8Gn~^^< 8a	.	8r	.
8EL 8B	.	8BL 8e	.	16f#X 16g#XLL	.	16c#X 16d#XLL	.
.	.	.	.	16f#X 16g#X	.	16c#X 16d#X	.
8BBJ 8F#X	.	8BJ 8f#X	.	16f#X 16g#X	.	16c#X 16d#X	.
.	.	.	.	16f#X 16g#XJJ	.	16c#X 16d#XJJ	.
=163	=163	=163	=163	=163	=163	=163	=163
(8C#XL 8G#X	.	4g#X 4cc#X	.	8r~^^	.	8dn~<^^< 8e	.
8CC#XJ 8GG#X)	.	.	.	16f#X 16g#XLL	.	16c#X 16d#XLL	.
.	.	.	.	16f#X 16g#X	.	16c#X 16d#X	.
8D#X 8A#X	.	8d#X 8a#X	.	16f#X 16g#X	.	16c#X 16d#X	.
.	.	.	.	16f#X 16g#XJJ	.	16c#X 16d#XJJ	.
!!LO:REH:t=12
=164	=164	=164	=164	=164	=164	=164	=164
(8E^^L /8B	.	4e~^^ 4b	.	8Gn~^^ 8a	.	8r	.
!	!	!	!	!	!	!	!LO:DY:t=%s marcato
8EEJ 8BB)	.	.	.	16f#X 16g#XLL	.	8gg#XL 8ccc#uX	ff
.	.	.	.	16f#X 16g#X	.	.	.
(8F#XL /8c#X	.	[8c#XL [8f#X	.	16f#X 16g#X	.	8ffJ 8bb	.
.	.	.	.	16f#X 16g#XJJ	.	.	.
=165	=165	=165	=165	=165	=165	=165	=165
!	!	!	!	!	!	!LO:TX:b:t=a5 battute	!
.	.	.	.	.	.	(8qa/ 8qee	.
8FF#XJ 8C#X)	.	8c#J] 8f#]	.	8dn~^^< 8e	.	4ee^^ 4aa)	.
8G#XL 8d#X	.	8d#XL 8g#X	.	16c#X 16d#XLL	.	.	.
.	.	.	.	16c#X 16d#X	.	.	.
8AJ 8e	.	8eJ 8a	.	16c#X 16d#X	.	[8dd#XL [8gg#X	.
.	.	.	.	16c#X 16d#XJJ	.	.	.
=166	=166	=166	=166	=166	=166	=166	=166
8F#X 8c#X	.	8c#X 8f#X	.	8r~^^	.	8dd#J] 8gg#]	.
[4Dn [4A	.	[4dn [4a	.	16c#X 16d#XLL	.	8cc#XL 8ff#X	.
.	.	.	.	16c#X 16d#X	.	.	.
.	.	.	.	16c#X 16d#X	.	8bJ 8ee	.
.	.	.	.	16c#X 16d#XJJ	.	.	.
=167	=167	=167	=167	=167	=167	=167	=167
8D] 8A]	.	8d] 8a]	.	8dn~^^< 8e	.	8dd#X 8gg#X	.
8BL 8e	.	8BL 8e	.	16c#X 16d#XLL	.	[4ff#X [4bb	.
.	.	.	.	16c#X 16d#X	.	.	.
8F#XJ 8B	.	8BJ 8f#X	.	16c#X 16d#X	.	.	.
.	.	.	.	16c#X 16d#XJJ	.	.	.
*	*	*	*	*Xtremolo	*	*	*
=	=	=	=	=	=	=	=
*-	*-	*-	*-	*-	*-	*-	*-
!!!system-decoration: [(s1,s2,s3,s4)]
!!!RDF**kern: > = above
!!!RDF**kern: < = below
!!!EED: Daniel Wright
!!!EEV: 2021/07/21
!!!EED2: Jason Lee
!!!EEV2: 2022/01/30
!!!Suter_Work_ID: Bar-35
!!!Suter_Example_Number: 339
!!!Suter_Example_ID: Bar-35/37-38/[11]1-[12]4
!!!Premiere_Location: Budapest,Hungary
!!!Other_Tsigs: none
!!!Full_Unit_Duration: 4:52
!!!First_Publication_Year: 1929
!!!First_Public_Performance_Year: 1929
!!!Example_Total_Measures: 14
!!!Example_Timestamp_Duration: 10
!!!Example_Start_Tsig_Type: simple triple
!!!Example_Start_Tsig_Mean_Beat_Rate: 240
!!!Example_Start_Tsig_Beat_Rate: 240
!!!Example_Start_Tsig_Beat: eighth
!!!Example_Start_Tsig: 3/8
!!!Example_Start_Timestamp: 4:20
!!!Example_Start_Tempo_Expression: [Meno vivo]
!!!Example_Start_Notated_Beat_Rate: [120]
!!!Example_Start_Notated_Beat: [quarter]
!!!Example_Start_Measure: 154
!!!Example_Metadata_Validated: Y
!!!Example_End_Timestamp: 4:30
!!!Example_End_Measure: 167
!!!Example_Dataset: T
!!!Editorial_Comments: The string quartet is written as a continuous movement, with four parts; the example is located within the third part. SWFU does not include the Coda. Example Start Notated Beat and Example Start Notated Beat Rate [quarter=120] based on most recent notated beat rate (SWFU, m. 94). Example Start Tempo Expression [Meno vivo] based on most recent notated tempo expression (SWFU, m. 94).
!!!Death_Place: New York,United States
!!!Death_Date: 26-Sep-1945
!!!Changing_Tsig: no
!!!Birth_Place: Sînnicolau Mare (Nagyszentmiklós),Romania (Hungary)
!!!Birth_Date: 25-Mar-1881
!!!Audio_Example_Quarter_Note_Tempo:
!!!Audio_Example_Duration:
!!!excerpt-duration-sec:
